packages/boxel-ui/addon/raw-icons/icon-link.svg

<svg height="24" viewBox="0 0 24 24" width="24" xmlns="http://www.w3.org/2000/svg"><g stroke="var(--icon-color, #000)"><path d="m15.7285 3.88396c1.4344-1.43989 3.5324-1.47013 4.6939-.30415 1.1636 1.16817 1.1323 3.27941-.303 4.72028l-2.4238 2.43321c-.2923.2935-.2914.7684.002 1.0607.2935.2923.7684.2914 1.0607-.0021l2.4238-2.43321c1.9113-1.91871 2.1513-4.98204.303-6.83749-1.8505-1.857649-4.907-1.615536-6.8193.30416l-4.84763 4.86646c-1.91129 1.91871-2.15125 4.98208-.30298 6.83748.29232.2935.76721.2944 1.06061.0021.2935-.2923.2944-.7672.0021-1.0607-1.16365-1.1681-1.13231-3.2794.303-4.72028z"/><path d="m14.4851 9.47074c-.2923-.29346-.7672-.29438-1.0607-.00206-.2934.29233-.2943.76722-.002 1.06062 1.1636 1.1682 1.1323 3.2794-.303 4.7203l-4.84762 4.8665c-1.43433 1.4399-3.53241 1.4702-4.69387.3042-1.16367-1.1682-1.13232-3.2795.30298-4.7204l2.42384-2.4332c.29233-.2935.29141-.7683-.00205-1.0607-.29346-.2923-.76834-.2914-1.06066.0021l-2.42384 2.4332c-1.911304 1.9188-2.151264 4.9821-.30299 6.8376 1.85048 1.8576 4.90702 1.6155 6.8193-.3042l4.84761-4.8665c1.9113-1.9187 2.1513-4.982.303-6.83746z"/></g></svg>

<?xml version="1.0" encoding="utf-8"?>
<!-- Uploaded to: SVG Repo, www.svgrepo.com, Generator: SVG Repo Mixer Tools -->
<svg width="800px" height="800px" viewBox="0 0 24 24" fill="none" xmlns="http://www.w3.org/2000/svg">
    <path
        d="M15.7285 3.88396C17.1629 2.44407 19.2609 2.41383 20.4224 3.57981C21.586 4.74798 21.5547 6.85922 20.1194 8.30009L17.6956 10.7333C17.4033 11.0268 17.4042 11.5017 17.6976 11.794C17.9911 12.0863 18.466 12.0854 18.7583 11.7919L21.1821 9.35869C23.0934 7.43998 23.3334 4.37665 21.4851 2.5212C19.6346 0.663551 16.5781 0.905664 14.6658 2.82536L9.81817 7.69182C7.90688 9.61053 7.66692 12.6739 9.51519 14.5293C9.80751 14.8228 10.2824 14.8237 10.5758 14.5314C10.8693 14.2391 10.8702 13.7642 10.5779 13.4707C9.41425 12.3026 9.44559 10.1913 10.8809 8.75042L15.7285 3.88396Z"
        fill="var(--icon-color, #000)" />
    <path
        d="M14.4851 9.47074C14.1928 9.17728 13.7179 9.17636 13.4244 9.46868C13.131 9.76101 13.1301 10.2359 13.4224 10.5293C14.586 11.6975 14.5547 13.8087 13.1194 15.2496L8.27178 20.1161C6.83745 21.556 4.73937 21.5863 3.57791 20.4203C2.41424 19.2521 2.44559 17.1408 3.88089 15.6999L6.30473 13.2667C6.59706 12.9732 6.59614 12.4984 6.30268 12.206C6.00922 11.9137 5.53434 11.9146 5.24202 12.2081L2.81818 14.6413C0.906876 16.5601 0.666916 19.6234 2.51519 21.4789C4.36567 23.3365 7.42221 23.0944 9.33449 21.1747L14.1821 16.3082C16.0934 14.3895 16.3334 11.3262 14.4851 9.47074Z"
        fill="var(--icon-color, #000)" />
</svg>
